src/icons/star Empty.svg

<svg width="28" height="29" viewBox="0 0 28 29" fill="none" xmlns="http://www.w3.org/2000/svg">
<g clip-path="url(#clip0_93_396)">
<path d="M20.6794 24.7175L20.6669 24.7169L20.6544 24.7169C20.5484 24.7174 20.4438 24.6925 20.3494 24.6445C20.3488 24.6442 20.3482 24.6439 20.3477 24.6436L14.4016 21.5306L14.1697 21.4092L13.9378 21.5306L7.9878 24.6456L7.987 24.6461C7.87659 24.7041 7.75211 24.73 7.62772 24.7209C7.50332 24.7117 7.38398 24.6678 7.28328 24.5942C7.18259 24.5206 7.10456 24.4202 7.05807 24.3044C7.01159 24.1887 6.99851 24.0622 7.02033 23.9394L6.5288 23.8521L7.02033 23.9394L8.187 17.371L8.23341 17.1097L8.04299 16.9249L3.23914 12.2609C3.15454 12.1758 3.0945 12.0693 3.06538 11.9528L2.58214 12.0736L3.06538 11.9528C3.03639 11.8369 3.03911 11.7153 3.0732 11.6008C3.11216 11.4842 3.18265 11.3805 3.2769 11.3014C3.37235 11.2213 3.48835 11.1695 3.61173 11.152L3.61342 11.1517L10.2634 10.1834L10.5245 10.1454L10.6405 9.90835L13.5688 3.92335L13.5697 3.92154C13.6243 3.80883 13.7095 3.71377 13.8156 3.64726C13.9218 3.58075 14.0445 3.54547 14.1697 3.54547C14.2949 3.54547 14.4176 3.58075 14.5238 3.64726C14.6299 3.71377 14.7151 3.80883 14.7697 3.92154L14.7697 3.92155L14.7718 3.92581L17.7351 9.89914L17.8516 10.1339L18.111 10.1717L24.761 11.1401L24.7627 11.1403C24.8861 11.1578 25.0021 11.2096 25.0975 11.2897C25.1918 11.3689 25.2622 11.4725 25.3012 11.5892C25.3353 11.7036 25.338 11.8252 25.309 11.9411C25.2799 12.0576 25.2199 12.164 25.1353 12.2492L20.3314 16.9132L20.141 17.0981L20.1874 17.3594L21.3541 23.9277L21.354 23.9277L21.3552 23.9338C21.379 24.0588 21.3665 24.188 21.3193 24.3061C21.2724 24.4234 21.1931 24.525 21.0907 24.5989C20.9704 24.6826 20.8258 24.7242 20.6794 24.7175Z" stroke="#12113D"/>
<path d="M20.6794 24.7175L20.6669 24.7169L20.6544 24.7169C20.5484 24.7174 20.4438 24.6925 20.3494 24.6445C20.3488 24.6442 20.3482 24.6439 20.3477 24.6436L14.4016 21.5306L14.1697 21.4092L13.9378 21.5306L7.9878 24.6456L7.987 24.6461C7.87659 24.7041 7.75211 24.73 7.62772 24.7209C7.50332 24.7117 7.38398 24.6678 7.28328 24.5942C7.18259 24.5206 7.10456 24.4202 7.05807 24.3044C7.01159 24.1887 6.99851 24.0622 7.02033 23.9394L6.5288 23.8521L7.02033 23.9394L8.187 17.371L8.23341 17.1097L8.04299 16.9249L3.23914 12.2609C3.15454 12.1758 3.0945 12.0693 3.06538 11.9528L2.58214 12.0736L3.06538 11.9528C3.03639 11.8369 3.03911 11.7153 3.0732 11.6008C3.11216 11.4842 3.18265 11.3805 3.2769 11.3014C3.37235 11.2213 3.48835 11.1695 3.61173 11.152L3.61342 11.1517L10.2634 10.1834L10.5245 10.1454L10.6405 9.90835L13.5688 3.92335L13.5697 3.92154C13.6243 3.80883 13.7095 3.71377 13.8156 3.64726C13.9218 3.58075 14.0445 3.54547 14.1697 3.54547C14.2949 3.54547 14.4176 3.58075 14.5238 3.64726C14.6299 3.71377 14.7151 3.80883 14.7697 3.92154L14.7697 3.92155L14.7718 3.92581L17.7351 9.89914L17.8516 10.1339L18.111 10.1717L24.761 11.1401L24.7627 11.1403C24.8861 11.1578 25.0021 11.2096 25.0975 11.2897C25.1918 11.3689 25.2622 11.4725 25.3012 11.5892C25.3353 11.7036 25.338 11.8252 25.309 11.9411C25.2799 12.0576 25.2199 12.164 25.1353 12.2492L20.3314 16.9132L20.141 17.0981L20.1874 17.3594L21.3541 23.9277L21.354 23.9277L21.3552 23.9338C21.379 24.0588 21.3665 24.188 21.3193 24.3061C21.2724 24.4234 21.1931 24.525 21.0907 24.5989C20.9704 24.6826 20.8258 24.7242 20.6794 24.7175Z" stroke="#DEE5FF"/>
<path d="M20.6794 24.7175L20.6669 24.7169L20.6544 24.7169C20.5484 24.7174 20.4438 24.6925 20.3494 24.6445C20.3488 24.6442 20.3482 24.6439 20.3477 24.6436L14.4016 21.5306L14.1697 21.4092L13.9378 21.5306L7.9878 24.6456L7.987 24.6461C7.87659 24.7041 7.75211 24.73 7.62772 24.7209C7.50332 24.7117 7.38398 24.6678 7.28328 24.5942C7.18259 24.5206 7.10456 24.4202 7.05807 24.3044C7.01159 24.1887 6.99851 24.0622 7.02033 23.9394L6.5288 23.8521L7.02033 23.9394L8.187 17.371L8.23341 17.1097L8.04299 16.9249L3.23914 12.2609C3.15454 12.1758 3.0945 12.0693 3.06538 11.9528L2.58214 12.0736L3.06538 11.9528C3.03639 11.8369 3.03911 11.7153 3.0732 11.6008C3.11216 11.4842 3.18265 11.3805 3.2769 11.3014C3.37235 11.2213 3.48835 11.1695 3.61173 11.152L3.61342 11.1517L10.2634 10.1834L10.5245 10.1454L10.6405 9.90835L13.5688 3.92335L13.5697 3.92154C13.6243 3.80883 13.7095 3.71377 13.8156 3.64726C13.9218 3.58075 14.0445 3.54547 14.1697 3.54547C14.2949 3.54547 14.4176 3.58075 14.5238 3.64726C14.6299 3.71377 14.7151 3.80883 14.7697 3.92154L14.7697 3.92155L14.7718 3.92581L17.7351 9.89914L17.8516 10.1339L18.111 10.1717L24.761 11.1401L24.7627 11.1403C24.8861 11.1578 25.0021 11.2096 25.0975 11.2897C25.1918 11.3689 25.2622 11.4725 25.3012 11.5892C25.3353 11.7036 25.338 11.8252 25.309 11.9411C25.2799 12.0576 25.2199 12.164 25.1353 12.2492L20.3314 16.9132L20.141 17.0981L20.1874 17.3594L21.3541 23.9277L21.354 23.9277L21.3552 23.9338C21.379 24.0588 21.3665 24.188 21.3193 24.3061C21.2724 24.4234 21.1931 24.525 21.0907 24.5989C20.9704 24.6826 20.8258 24.7242 20.6794 24.7175Z" stroke="#283385"/>
<path d="M20.6794 24.7175L20.6669 24.7169L20.6544 24.7169C20.5484 24.7174 20.4438 24.6925 20.3494 24.6445C20.3488 24.6442 20.3482 24.6439 20.3477 24.6436L14.4016 21.5306L14.1697 21.4092L13.9378 21.5306L7.9878 24.6456L7.987 24.6461C7.87659 24.7041 7.75211 24.73 7.62772 24.7209C7.50332 24.7117 7.38398 24.6678 7.28328 24.5942C7.18259 24.5206 7.10456 24.4202 7.05807 24.3044C7.01159 24.1887 6.99851 24.0622 7.02033 23.9394L6.5288 23.8521L7.02033 23.9394L8.187 17.371L8.23341 17.1097L8.04299 16.9249L3.23914 12.2609C3.15454 12.1758 3.0945 12.0693 3.06538 11.9528L2.58214 12.0736L3.06538 11.9528C3.03639 11.8369 3.03911 11.7153 3.0732 11.6008C3.11216 11.4842 3.18265 11.3805 3.2769 11.3014C3.37235 11.2213 3.48835 11.1695 3.61173 11.152L3.61342 11.1517L10.2634 10.1834L10.5245 10.1454L10.6405 9.90835L13.5688 3.92335L13.5697 3.92154C13.6243 3.80883 13.7095 3.71377 13.8156 3.64726C13.9218 3.58075 14.0445 3.54547 14.1697 3.54547C14.2949 3.54547 14.4176 3.58075 14.5238 3.64726C14.6299 3.71377 14.7151 3.80883 14.7697 3.92154L14.7697 3.92155L14.7718 3.92581L17.7351 9.89914L17.8516 10.1339L18.111 10.1717L24.761 11.1401L24.7627 11.1403C24.8861 11.1578 25.0021 11.2096 25.0975 11.2897C25.1918 11.3689 25.2622 11.4725 25.3012 11.5892C25.3353 11.7036 25.338 11.8252 25.309 11.9411C25.2799 12.0576 25.2199 12.164 25.1353 12.2492L20.3314 16.9132L20.141 17.0981L20.1874 17.3594L21.3541 23.9277L21.354 23.9277L21.3552 23.9338C21.379 24.0588 21.3665 24.188 21.3193 24.3061C21.2724 24.4234 21.1931 24.525 21.0907 24.5989C20.9704 24.6826 20.8258 24.7242 20.6794 24.7175Z" stroke="#FE450D"/>
</g>
<defs>
<clipPath id="clip0_93_396">
<rect width="28" height="28" fill="white" transform="translate(0 0.5)"/>
</clipPath>
</defs>
</svg>

<svg xmlns="http://www.w3.org/2000/svg" width="28" height="29" fill="none"><g clip-path="url(#a)"><path stroke="#12113D" d="m20.68 24.718-.013-.001h-.013a.666.666 0 0 1-.306-.073l-5.946-3.113-.232-.122-.232.122-5.95 3.115h-.001a.668.668 0 0 1-.967-.707l-.491-.087.491.087 1.167-6.568.046-.261-.19-.185-4.804-4.664a.666.666 0 0 1-.174-.308l-.483.12.483-.12a.667.667 0 0 1 .008-.352.667.667 0 0 1 .539-.449h.001l6.65-.969.261-.038.117-.237 2.928-5.985v-.001a.667.667 0 0 1 1.2 0l.003.004 2.963 5.973.117.235.259.038 6.65.968h.002a.666.666 0 0 1 .538.45.666.666 0 0 1-.166.66l-4.804 4.663-.19.185.046.261 1.167 6.569.001.006a.667.667 0 0 1-.264.665.667.667 0 0 1-.412.119Z"/><path stroke="#DEE5FF" d="m20.68 24.718-.013-.001h-.013a.666.666 0 0 1-.306-.073l-5.946-3.113-.232-.122-.232.122-5.95 3.115h-.001a.668.668 0 0 1-.967-.707l-.491-.087.491.087 1.167-6.568.046-.261-.19-.185-4.804-4.664a.666.666 0 0 1-.174-.308l-.483.12.483-.12a.667.667 0 0 1 .008-.352.667.667 0 0 1 .539-.449h.001l6.65-.969.261-.038.117-.237 2.928-5.985v-.001a.667.667 0 0 1 1.2 0l.003.004 2.963 5.973.117.235.259.038 6.65.968h.002a.666.666 0 0 1 .538.45.666.666 0 0 1-.166.66l-4.804 4.663-.19.185.046.261 1.167 6.569.001.006a.667.667 0 0 1-.264.665.667.667 0 0 1-.412.119Z"/><path stroke="#283385" d="m20.68 24.718-.013-.001h-.013a.666.666 0 0 1-.306-.073l-5.946-3.113-.232-.122-.232.122-5.95 3.115h-.001a.668.668 0 0 1-.967-.707l-.491-.087.491.087 1.167-6.568.046-.261-.19-.185-4.804-4.664a.666.666 0 0 1-.174-.308l-.483.12.483-.12a.667.667 0 0 1 .008-.352.667.667 0 0 1 .539-.449h.001l6.65-.969.261-.038.117-.237 2.928-5.985v-.001a.667.667 0 0 1 1.2 0l.003.004 2.963 5.973.117.235.259.038 6.65.968h.002a.666.666 0 0 1 .538.45.666.666 0 0 1-.166.66l-4.804 4.663-.19.185.046.261 1.167 6.569.001.006a.667.667 0 0 1-.264.665.667.667 0 0 1-.412.119Z"/><path stroke="#FE450D" d="m20.68 24.718-.013-.001h-.013a.666.666 0 0 1-.306-.073l-5.946-3.113-.232-.122-.232.122-5.95 3.115h-.001a.668.668 0 0 1-.967-.707l-.491-.087.491.087 1.167-6.568.046-.261-.19-.185-4.804-4.664a.666.666 0 0 1-.174-.308l-.483.12.483-.12a.667.667 0 0 1 .008-.352.667.667 0 0 1 .539-.449h.001l6.65-.969.261-.038.117-.237 2.928-5.985v-.001a.667.667 0 0 1 1.2 0l.003.004 2.963 5.973.117.235.259.038 6.65.968h.002a.666.666 0 0 1 .538.45.666.666 0 0 1-.166.66l-4.804 4.663-.19.185.046.261 1.167 6.569.001.006a.667.667 0 0 1-.264.665.667.667 0 0 1-.412.119Z"/></g><defs><clipPath id="a"><path fill="#fff" d="M0 .5h28v28H0z"/></clipPath></defs></svg>
